icons/evolvere-blue-folders-flat-vivid-dark-fallback/apps/64/xorg.svg

<?xml version="1.0" encoding="UTF-8" standalone="no"?>
<!-- Created with Inkscape (http://www.inkscape.org/) -->

<svg
   xmlns:dc="http://purl.org/dc/elements/1.1/"
   xmlns:cc="http://creativecommons.org/ns#"
   xmlns:rdf="http://www.w3.org/1999/02/22-rdf-syntax-ns#"
   xmlns:svg="http://www.w3.org/2000/svg"
   xmlns="http://www.w3.org/2000/svg"
   xmlns:sodipodi="http://sodipodi.sourceforge.net/DTD/sodipodi-0.dtd"
   xmlns:inkscape="http://www.inkscape.org/namespaces/inkscape"
   width="64"
   height="64"
   id="svg13094"
   version="1.1"
   inkscape:version="0.48.4 r9939"
   sodipodi:docname="xorg.svg">
  <sodipodi:namedview
     id="base"
     pagecolor="#ffffff"
     bordercolor="#666666"
     borderopacity="1.0"
     inkscape:pageopacity="0"
     inkscape:pageshadow="2"
     inkscape:zoom="11.313709"
     inkscape:cx="21.722668"
     inkscape:cy="32.635154"
     inkscape:document-units="px"
     inkscape:current-layer="svg13094"
     showgrid="false"
     inkscape:snap-bbox="true"
     inkscape:bbox-paths="true"
     inkscape:bbox-nodes="true"
     inkscape:snap-bbox-edge-midpoints="true"
     inkscape:snap-bbox-midpoints="true"
     inkscape:object-paths="true"
     inkscape:snap-intersection-paths="true"
     inkscape:object-nodes="true"
     inkscape:snap-smooth-nodes="true"
     inkscape:snap-midpoints="true"
     inkscape:snap-object-midpoints="true"
     inkscape:snap-center="true"
     showguides="true"
     inkscape:guide-bbox="true"
     inkscape:window-width="1920"
     inkscape:window-height="1022"
     inkscape:window-x="-5"
     inkscape:window-y="23"
     inkscape:window-maximized="1"
     inkscape:snap-global="true"
     fit-margin-top="0"
     fit-margin-left="0"
     fit-margin-right="0"
     fit-margin-bottom="0"
     showborder="true"
     inkscape:showpageshadow="false"
     inkscape:snap-page="true">
    <inkscape:grid
       type="xygrid"
       id="grid3075"
       empspacing="5"
       visible="true"
       enabled="true"
       snapvisiblegridlinesonly="true"
       originx="1.6362304e-08px"
       originy="18px" />
  </sodipodi:namedview>
  <defs
     id="defs13096" />
  <metadata
     id="metadata13099">
    <rdf:RDF>
      <cc:Work
         rdf:about="">
        <dc:format>image/svg+xml</dc:format>
        <dc:type
           rdf:resource="http://purl.org/dc/dcmitype/StillImage" />
        <dc:title />
      </cc:Work>
    </rdf:RDF>
  </metadata>
  <style
     id="style3005"
     type="text/css">
#P1 {fill:url(#LO)}
rect {opacity:.40740739;fill:#000cff;width:.50507629;height:0}
</style>
  <path
     inkscape:connector-curvature="0"
     style="color:#000000;fill:#3b577a;fill-opacity:1;fill-rule:nonzero;stroke:none;stroke-width:1;marker:none;visibility:visible;display:inline;overflow:visible;enable-background:accumulate"
     d="m 0,4 0,30 0,28 2,2 30,0 30,0 2,-2 L 64,34 64,4 32,4 0,4 z"
     id="path4095" />
  <path
     inkscape:connector-curvature="0"
     style="color:#000000;fill:#668cbb;fill-opacity:1;fill-rule:nonzero;stroke:none;stroke-width:2.28571415;marker:none;visibility:visible;display:inline;overflow:visible;enable-background:accumulate"
     d="M 2,0 0,1 0,4 32,4 64,4 64,1 62,0 32,0 2,0 z"
     id="path4090" />
  <path
     inkscape:connector-curvature="0"
     style="fill:#729bcd;fill-opacity:1;fill-rule:nonzero;stroke-width:1;stroke-linecap:butt;stroke-linejoin:miter;stroke-miterlimit:4;stroke-opacity:1;stroke-dasharray:none;stroke-dashoffset:0"
     d="M 0,3 0,6 2,4 z"
     id="path4298"
     sodipodi:nodetypes="cccc" />
  <path
     d="M 64,6 62,4 64,3 z"
     id="path3028"
     style="fill:#4f6f97;fill-opacity:1;stroke:none;stroke-width:0.62299293;marker:none"
     inkscape:connector-curvature="0" />
  <g
     id="g3043"
     inkscape:export-filename="folder.png"
     inkscape:export-xdpi="90"
     inkscape:export-ydpi="90"
     transform="translate(-0.62500009,0.082283)" />
  <g
     id="scalable"
     transform="matrix(1.0385892,0,0,1.0385892,1214.7222,1878.8121)"
     inkscape:label="#g3701"
     style="fill:#ffffff" />
  <path
     id="path3848"
     d="M 15.373728,51.564842 28.169727,34.834475 14.996006,16.439001 l 8.467261,0.007 10.497124,14.464424 -15.695366,20.654381 -2.891297,0 z m 25.045273,0.01183 -10.424653,-14.489257 15.82606,-20.664087 2.819765,0 -12.84822,16.809304 13.094444,18.34404 -8.467396,0 z"
     inkscape:connector-curvature="0"
     style="color:#000000;fill:#ffffff;fill-opacity:0.90087718;fill-rule:nonzero;stroke:none;marker:none;visibility:visible;display:inline;overflow:visible;enable-background:accumulate" />
  <path
     d="m 31.9982,23.130113 c -1.019447,0 -2.108603,0.07894 -3.089095,0.173059 1.746786,2.278227 3.196207,4.207408 4.864311,6.398373 -0.936257,-2.014806 -2.860527,-3.946884 -2.195295,-4.940536 0.658494,-0.983588 1.871771,-0.818034 1.964189,-0.818034 1.945188,0 3.817614,0.21969 5.568152,0.626282 l 0.410323,-0.565093 C 37.186027,23.403133 34.650067,23.130113 31.9982,23.130113 z m 10.535218,1.838669 -0.377929,0.539899 c 5.393318,2.111983 9.041499,6.145949 9.041499,10.769172 0,6.807734 -7.908703,12.33128 -17.654678,12.33128 -9.745976,-10e-7 -17.658278,-5.523547 -17.658278,-12.33128 1e-6,-3.707332 2.346365,-7.035094 6.05766,-9.297049 l -1.140985,-1.738473 c -5.82182,2.468482 -9.685777,6.801236 -9.685778,11.733791 0,7.674756 9.355072,13.900585 20.883271,13.900585 11.528198,0 20.886869,-6.225828 20.886871,-13.900585 0,-5.117709 -4.160535,-9.593485 -10.351653,-12.00734 z"
     id="P1"
     inkscape:connector-curvature="0"
     style="fill:#fac655;fill-opacity:1" />
</svg>

<svg xmlns="http://www.w3.org/2000/svg" viewBox="0 0 64 64"><g color="#000"><path d="m0 4v30 28l2 2h30 30l2-2v-28-30h-32-32" fill="#3b577a"/><path d="m2 0l-2 1v3h32 32v-3l-2-1h-30-30" fill="#668cbb"/></g><path d="m0 3v3l2-2z" fill="#729bcd"/><path d="m64 6l-2-2 2-1z" fill="#4f6f97"/><path d="m15.374 51.565l12.796-16.73-13.174-18.395 8.467.007 10.497 14.464-15.695 20.654h-2.891m25.05.012l-10.425-14.489 15.826-20.664h2.82l-12.848 16.809 13.09 18.344h-8.467" fill="#fff" fill-opacity=".901" color="#000"/><path d="m31.998 23.13c-1.019 0-2.109.079-3.089.173 1.747 2.278 3.196 4.207 4.864 6.398-.936-2.01-2.861-3.947-2.195-4.941.658-.984 1.872-.818 1.964-.818 1.945 0 3.818.22 5.568.626l.41-.565c-2.335-.601-4.871-.874-7.523-.874m10.535 1.839l-.378.54c5.393 2.112 9.04 6.146 9.04 10.769 0 6.808-7.909 12.331-17.655 12.331-9.746 0-17.658-5.524-17.658-12.331 0-3.707 2.346-7.04 6.06-9.297l-1.141-1.738c-5.822 2.468-9.686 6.801-9.686 11.734 0 7.675 9.355 13.901 20.883 13.901 11.528 0 20.887-6.226 20.887-13.901 0-5.118-4.161-9.593-10.352-12.01" fill="#fac655"/></svg>
